icons/shield-24.svg

<svg xmlns="http://www.w3.org/2000/svg" width="24" height="24" viewBox="0 0 24 24"><path d="M13 15.5a1 1 0 11-2 0 1 1 0 012 0zm-.25-8.25a.75.75 0 00-1.5 0v4.5a.75.75 0 001.5 0v-4.5z"/><path d="M11.46.637a1.748 1.748 0 011.08 0l8.25 2.675A1.75 1.75 0 0122 4.976V10c0 6.19-3.77 10.705-9.401 12.83a1.704 1.704 0 01-1.198 0C5.771 20.704 2 16.19 2 10V4.976c0-.76.49-1.43 1.21-1.664zm.617 1.426a.253.253 0 00-.154 0L3.673 4.74a.25.25 0 00-.173.237V10c0 5.461 3.28 9.483 8.43 11.426a.199.199 0 00.14 0C17.22 19.483 20.5 15.46 20.5 10V4.976a.25.25 0 00-.173-.237z"/></svg>

<svg xmlns="http://www.w3.org/2000/svg" width="24" height="24" viewBox="0 0 24 24">
  <defs/>
  <path d="M13,15.5 A1 1 0 1 1 11,15.5 A1 1 0 0 1 13,15.5 Z M12.75,7.25 A0.75 0.75 0 0 0 11.25,7.25 L11.25,11.75 A0.75 0.75 0 0 0 12.75,11.75 L12.75,7.25 Z"/>
  <path d="M11.46,0.637 C11.811,0.523 12.189,0.523 12.54,0.637 L20.79,3.312 C21.511,3.546 22,4.218 22,4.976 L22,10 C22,16.19 18.23,20.705 12.599,22.83 C12.213,22.975 11.787,22.975 11.401,22.83 C5.771,20.704 2,16.19 2,10 L2,4.976 C2,4.216 2.49,3.546 3.21,3.312 Z M12.077,2.063 C12.027,2.047 11.973,2.047 11.923,2.063 L3.673,4.74 C3.57,4.773 3.5,4.869 3.5,4.977 L3.5,10 C3.5,15.461 6.78,19.483 11.93,21.426 C11.975,21.443 12.025,21.443 12.07,21.426 C17.22,19.483 20.5,15.46 20.5,10 L20.5,4.976 C20.5,4.868 20.43,4.772 20.327,4.739 Z"/>
</svg>
